svg/u1f473_1f3fb_200d_2640.svg

<svg viewBox="0 0 128 128" xmlns="http://www.w3.org/2000/svg">
  <g id="suit">
    <linearGradient id="SVGID_1_" gradientTransform="matrix(1 0 0 -1 0 128)" gradientUnits="userSpaceOnUse" x1="63.95" x2="63.95" y1="4.2619" y2="31.0487">
      <stop offset="5.160900e-04" stop-color="#E3E3E3"/>
      <stop offset="1" stop-color="#C9C9C9"/>
    </linearGradient>
    <path d="M115.95,120.99V124h-104v-3.01c0-14.66,17.69-22.05,38.2-24.25c4.52-0.5,9.17-0.73,13.8-0.74 h0.14c4.59,0,9.2,0.26,13.66,0.78C98.33,99.18,115.95,107.14,115.95,120.99z" fill="url(#SVGID_1_)"/>
    <path d="M77.75,96.78v7.12c0,5.47-5.61,9.91-12.54,9.91H62.7c-6.93,0-12.55-4.44-12.55-9.92v-7.15 c4.52-0.5,9.17-0.73,13.8-0.74h0.14C68.68,96,73.29,96.26,77.75,96.78z" fill="#B9BBBD"/>
    <rect fill="#B9BBBD" height="12.5" width="4.54" x="61.73" y="111.5"/>
  </g>
  <path id="neck" d="M73.08,90.08H54.92v9.98c0,4.51,3.7,8.17,8.26,8.17h1.65c4.56,0,8.26-3.66,8.26-8.17v-9.98 H73.08z" fill="#EDC391"/>
  <path id="hair" d="M64,12.86c-23.2,0-40.36,23.3-40.36,44.81S40.81,94.86,64,94.86 c23.2,0,40.26-15.68,40.26-37.19C104.26,36.17,87.2,12.86,64,12.86z" fill="#312D2D"/>
  <radialGradient id="hairHighlights_1_" cx="64.2233" cy="64.5092" gradientTransform="matrix(1 0 0 -1 0 128)" gradientUnits="userSpaceOnUse" r="40.6565">
    <stop offset="0.7945" stop-color="#454140" stop-opacity="0"/>
    <stop offset="1" stop-color="#454140"/>
  </radialGradient>
  <path id="hairHighlights" d="M64,12.86c-23.2,0-40.36,23.3-40.36,44.81S40.81,94.86,64,94.86 c23.2,0,40.26-15.68,40.26-37.19C104.26,36.17,87.2,12.86,64,12.86z" fill="url(#hairHighlights_1_)"/>
  <path id="ears" d="M91.33,50.43H36.67c-5.89,0-10.71,5.14-10.71,11.41s4.82,11.41,10.71,11.41h54.65 c5.89,0,10.71-5.14,10.71-11.41S97.22,50.43,91.33,50.43z" fill="#EDC391"/>
  <path id="head" d="M64,16.04c-17.2,0-33.13,12.79-33.13,39.91c0,21.79,13.49,34.67,25.23,38.83 c2.8,0.99,5.5,1.49,7.9,1.49c2.38,0,5.07-0.49,7.85-1.47c11.76-4.14,25.28-17.03,25.28-38.84C97.13,28.83,81.2,16.04,64,16.04z" fill="#F9DDBD"/>
  <path id="hair_1_" d="M95.96,57.75c0,4.42-1.92,15.11-1.92,15.11s5.26-4.81,7.33-16.86 c2.84-16.51,1.53-47.79-37.3-47.79S26.11,43.78,26.11,43.78s0,9.72,1.64,15.94c1.3,4.91,5.51,11.75,6.24,13.14 c-0.84-6.17-0.95-5.78-1.2-12.19c-0.26-6.74,0.73-11.8,6.61-13.92c20.79-7.49,35.01-16.89,35.01-16.89 c3.29,7.19,12.69,13.8,16.38,16.47C93.83,48.52,95.96,53.33,95.96,57.75z" fill="#312D2D"/>
  <path id="nose" d="M67.81,68.05c-0.1-0.04-0.21-0.07-0.32-0.08H60.5c-0.11,0.01-0.21,0.04-0.32,0.08 c-0.63,0.26-0.98,0.91-0.68,1.61s1.69,2.66,4.49,2.66c2.8,0,4.19-1.96,4.49-2.66C68.79,68.97,68.45,68.31,67.81,68.05z" fill="#DBA689"/>
  <g id="eyes">
    <ellipse id="eye_1_" cx="47.75" cy="58.87" fill="#312D2D" rx="4.87" ry="5.04"/>
    <ellipse id="eye" cx="80.25" cy="58.87" fill="#312D2D" rx="4.87" ry="5.04"/>
  </g>
  <g id="eyebrows">
    <path d="M54.98,49.82c-0.93-1.23-3.07-3.01-7.23-3.01s-6.31,1.79-7.23,3.01c-0.41,0.54-0.31,1.17-0.02,1.55 c0.26,0.35,1.04,0.68,1.9,0.39s2.54-1.16,5.35-1.18c2.81,0.02,4.49,0.89,5.35,1.18s1.64-0.03,1.9-0.39 C55.29,50.99,55.39,50.36,54.98,49.82z" fill="#454140"/>
    <path d="M87.48,49.82c-0.93-1.23-3.07-3.01-7.23-3.01s-6.31,1.79-7.23,3.01c-0.41,0.54-0.31,1.17-0.02,1.55 c0.26,0.35,1.04,0.68,1.9,0.39s2.54-1.16,5.35-1.18c2.81,0.02,4.49,0.89,5.35,1.18s1.64-0.03,1.9-0.39 C87.79,50.99,87.89,50.36,87.48,49.82z" fill="#454140"/>
  </g>
  <path id="mouth" d="M72.32,76.14c-3.15,1.87-13.46,1.87-16.61,0c-1.81-1.07-3.65,0.57-2.9,2.21 c0.74,1.61,6.37,5.36,11.23,5.36s10.42-3.75,11.16-5.36C75.95,76.71,74.12,75.06,72.32,76.14z" fill="#444444"/>
  <g id="turban_1_">
    <path d="M107.62,43.89c0,0-6.08-8.44-32.83-16.69c-21.16-6.53-41.84-6.31-50.43-5.19 c0,0-0.27,0.23-0.97,1.25c0,0,25.34-2.79,53.64,7.57c10.4,3.81,24.27,8.57,30.01,16.47L107.62,43.89z" fill="#B9BBBD"/>
    <path d="M64.93,39.18c-24.5-5.1-39.73-6.41-44.54-1.87c-0.65-6.69,1.14-11.28,3.04-13.89 c2.18-3.01,6.41-7.14,9.49-9.25C43.83,6.67,53.15,4,63.97,4c10.59,0,23.57,6.24,33.19,12.73c3.09,2.09,5.18,3.69,7.36,6.69 c8.29,11.42-0.32,34.26-0.32,34.26S93.6,45.14,64.93,39.18z" fill="none"/>
    <linearGradient id="SVGID_2_" gradientTransform="matrix(1 0 0 1 0 0.6771)" gradientUnits="userSpaceOnUse" x1="63.9912" x2="63.9912" y1="3.5709" y2="55.3309">
      <stop offset="0.0167" stop-color="#EEEEEE"/>
      <stop offset="0.3279" stop-color="#E3E3E3"/>
      <stop offset="0.8795" stop-color="#C5C5C5"/>
      <stop offset="1" stop-color="#BDBDBD"/>
    </linearGradient>
    <path d="M60.53,40.53c24.61-4.54,39.81-7.4,47.59-3.08c0.65-6.69-1.56-11.53-3.6-14.03 C95.83,12.75,74.64,4,63.82,4c-10.59,0-30.5,5.09-40.55,19.42c-8.11,11.55,0.32,34.26,0.32,34.26S31.78,45.83,60.53,40.53z" fill="url(#SVGID_2_)"/>
    <path d="M20.18,43.89c0,0,6.08-8.44,32.83-16.69c21.15-6.52,41.84-6.31,50.42-5.19c0,0,0.27,0.23,0.97,1.25 c0,0-25.34-2.79-53.64,7.57c-10.4,3.81-24.27,8.57-30.01,16.47L20.18,43.89z" fill="#B9BBBD"/>
    <path d="M108.12,36.73c0,0.24,0,0.48-0.01,0.72c-0.01,1.87-0.16,3.74-0.39,5.55 c-0.14,1.17-0.32,2.3-0.52,3.4c-1.16,6.39-3,11.28-3,11.28S93.94,45.55,66.32,39.47c-0.46-0.09-0.92-0.19-1.39-0.29 c-1.56-0.33-3.09-0.64-4.58-0.93c-0.85-0.17-1.69-0.33-2.52-0.49c-20.35-3.88-33.11-4.53-37.44-0.45 c-0.65-6.69,1.14-11.28,3.04-13.89c0.11-0.15,0.22-0.3,0.34-0.45c0.33-0.44,0.7-0.89,1.1-1.36c2.3-2.69,5.55-5.73,8.05-7.44 c6.82-4.69,13.01-7.49,19.34-8.93h0.01c2.96-0.67,5.95-1.05,9.04-1.18c0.42-0.02,0.85-0.03,1.26-0.04C62.99,4,63.41,4,63.82,4 c0.33,0,0.67,0.01,1.01,0.02c1.72,0.05,3.5,0.26,5.31,0.6c0.35,0.06,0.71,0.13,1.07,0.21c8.87,1.91,18.43,6.83,25.95,11.9 c1.55,1.05,2.84,1.97,4.02,3c0.08,0.06,0.15,0.13,0.22,0.2c1.09,0.99,2.1,2.08,3.12,3.49c2.1,2.89,3.12,6.53,3.46,10.34 C108.07,34.74,108.11,35.74,108.12,36.73z" fill="#C4C6C7"/>
    <path d="M107.72,43c-0.14,1.17-0.32,2.3-0.52,3.4c-6.5-7.26-19.69-11.8-29.75-15.49 c-24.85-9.09-47.48-8.37-53.68-7.94c0.33-0.44,0.7-0.89,1.1-1.36c9.72-0.95,29.78-0.76,50.27,5.56 C96.09,33.63,104.76,40.2,107.72,43z" fill="#B9BBBD"/>
    <linearGradient id="SVGID_3_" gradientTransform="matrix(1 0 0 -1 0 128)" gradientUnits="userSpaceOnUse" x1="64.0178" x2="64.0178" y1="123.7187" y2="74.0374">
      <stop offset="0.0167" stop-color="#EEEEEE"/>
      <stop offset="0.3279" stop-color="#E3E3E3"/>
      <stop offset="0.8795" stop-color="#C5C5C5"/>
      <stop offset="1" stop-color="#BDBDBD"/>
    </linearGradient>
    <path d="M108.18,36.76c-0.02-0.01-0.04-0.02-0.06-0.03c-6.53-3.23-38.64-0.76-47.77,1.52 c-0.23,0.06-0.45,0.11-0.65,0.17c-34.91,9.97-36.07,18.75-36.11,19.24c0,0.01,0,0.02,0,0.02s0,0-0.01-0.01 c-0.05-0.16-0.58-1.61-1.22-3.88c-0.57-1.97-1.22-4.55-1.73-7.44c-0.19-1.09-0.36-2.23-0.51-3.4c-0.41-3.46-0.55-7.15-0.06-10.63 c0.17-1.28,0.43-2.53,0.79-3.73v-0.01c0.55-1.87,1.34-3.61,2.42-5.16C30.56,13.03,41.68,7.5,52.26,5.24h0.01 c2.68-0.57,5.34-0.94,7.89-1.12c0.38-0.02,0.77-0.04,1.15-0.06c0.42-0.02,0.85-0.03,1.26-0.04C62.99,4,63.41,4,63.82,4 c0.33,0,0.67,0.01,1.01,0.02c0.42,0.02,0.86,0.04,1.3,0.07c1.28,0.11,2.62,0.28,4.01,0.53c0.35,0.06,0.71,0.13,1.07,0.21 c3.64,0.73,7.56,1.94,11.42,3.51c0.96,0.39,1.9,0.8,2.85,1.24h0.01c5.93,2.7,11.56,6.21,15.69,10.15c0.08,0.06,0.15,0.13,0.22,0.2 c0.58,0.55,1.12,1.12,1.64,1.69c0.4,0.45,0.78,0.9,1.13,1.35c0.12,0.15,0.24,0.3,0.35,0.45c1.64,2.17,3.57,5.4,3.75,10.37 C108.31,34.72,108.28,35.71,108.18,36.76z" fill="url(#SVGID_3_)"/>
    <path d="M104.17,22.97c-5.99-0.42-28.79-1.23-53.83,7.94c-10.04,3.68-23.19,8.21-29.71,15.44 c-0.19-1.09-0.36-2.23-0.51-3.4c3-2.81,11.69-9.35,32.54-15.78c20.56-6.34,40.71-6.51,50.38-5.55 C103.44,22.07,103.82,22.52,104.17,22.97z" fill="#B9BBBD"/>
    <path d="M108.18,36.76c-0.02-0.01-0.04-0.02-0.06-0.03c0,0.24,0,0.48-0.01,0.72 c-4.9-0.34-22.72-1.09-41.79,2.02c-4.33,0.71-8.72,1.62-13.04,2.77C42.96,45,30.11,50.44,23.59,57.66l-0.01,0.01 c-0.05-0.16-0.58-1.61-1.22-3.88c3.88-3.19,14.31-10.76,29.55-14.67c1.92-0.49,3.9-0.95,5.92-1.36c20.39-4.18,44.69-4.44,50.15-4 c0.1,0.01,0.2,0.02,0.29,0.03C108.31,34.72,108.28,35.71,108.18,36.76z" fill="#B9BBBD"/>
    <path d="M85.48,9.58c-8.88,0.07-25.34,1.72-39.92,7.78c-7.18,2.99-20.88,10.43-25.5,14.96 c0.17-1.28,0.43-2.53,0.79-3.73v-0.01c2.46-2.3,9.23-7.75,22.97-13.12c14.92-5.83,31.1-7.53,38.81-7.12 C83.59,8.73,84.53,9.14,85.48,9.58z" fill="#B9BBBD"/>
  </g>
</svg>

<svg viewBox="0 0 128 128" xmlns="http://www.w3.org/2000/svg">
  <defs>
    <radialGradient id="hairHighlights_1_" cx="64.2233" cy="-63.4908" gradientTransform="matrix(1 0 0 -1 0 0)" gradientUnits="userSpaceOnUse" r="40.6565">
      <stop offset="0.7945" stop-color="#454140" stop-opacity="0"/>
      <stop offset="1" stop-color="#454140"/>
    </radialGradient>
    <linearGradient id="SVGID_1_" gradientTransform="matrix(1 0 0 -1 0 0)" gradientUnits="userSpaceOnUse" x1="63.95" x2="63.95" y1="-123.7381" y2="-96.9513">
      <stop offset="5.160900e-04" stop-color="#E3E3E3"/>
      <stop offset="1" stop-color="#C9C9C9"/>
    </linearGradient>
    <linearGradient id="SVGID_2_" gradientUnits="userSpaceOnUse" x1="63.9912" x2="63.9912" y1="4.248" y2="56.008">
      <stop offset="0.0167" stop-color="#EEEEEE"/>
      <stop offset="0.3279" stop-color="#E3E3E3"/>
      <stop offset="0.8795" stop-color="#C5C5C5"/>
      <stop offset="1" stop-color="#BDBDBD"/>
    </linearGradient>
    <linearGradient id="SVGID_3_" gradientTransform="matrix(1 0 0 -1 0 0)" gradientUnits="userSpaceOnUse" x1="64.0178" x2="64.0178" y1="-4.2813" y2="-53.9626">
      <stop offset="0.0167" stop-color="#EEEEEE"/>
      <stop offset="0.3279" stop-color="#E3E3E3"/>
      <stop offset="0.8795" stop-color="#C5C5C5"/>
      <stop offset="1" stop-color="#BDBDBD"/>
    </linearGradient>
  </defs>
  <path d="M115.95,120.99 L115.95,124 L11.95,124 L11.95,120.99 C11.95,106.33 29.64,98.94 50.15,96.74 C54.67,96.24 59.32,96.01 63.95,96 L64.09,96 C68.68,96 73.29,96.26 77.75,96.78 C98.33,99.18 115.95,107.14 115.95,120.99 Z" fill="url(#SVGID_1_)"/>
  <path d="M77.75,96.78 L77.75,103.9 C77.75,109.37 72.14,113.81 65.21,113.81 L62.7,113.81 C55.77,113.81 50.15,109.37 50.15,103.89 L50.15,96.74 C54.67,96.24 59.32,96.01 63.95,96 L64.09,96 C68.68,96 73.29,96.26 77.75,96.78 Z" fill="#B9BBBD"/>
  <path d="M61.73,111.5 L66.27,111.5 L66.27,124 L61.73,124 L61.73,111.5 Z" fill="#B9BBBD"/>
  <path id="neck" d="M73.08,90.08 L54.92,90.08 L54.92,100.06 C54.92,104.57 58.62,108.23 63.18,108.23 L64.83,108.23 C69.39,108.23 73.09,104.57 73.09,100.06 L73.09,90.08 L73.08,90.08 Z" fill="#EDC391"/>
  <path id="hair" d="M64,12.86 C40.8,12.86 23.64,36.16 23.64,57.67 C23.64,79.18 40.81,94.86 64,94.86 C87.2,94.86 104.26,79.18 104.26,57.67 C104.26,36.17 87.2,12.86 64,12.86 Z" fill="#312D2D"/>
  <path id="hairHighlights" d="M64,12.86 C40.8,12.86 23.64,36.16 23.64,57.67 C23.64,79.18 40.81,94.86 64,94.86 C87.2,94.86 104.26,79.18 104.26,57.67 C104.26,36.17 87.2,12.86 64,12.86 Z" fill="url(#hairHighlights_1_)"/>
  <path id="ears" d="M91.33,50.43 L36.67,50.43 C30.78,50.43 25.96,55.57 25.96,61.84 C25.96,68.11 30.78,73.25 36.67,73.25 L91.32,73.25 C97.21,73.25 102.03,68.11 102.03,61.84 C102.03,55.57 97.22,50.43 91.33,50.43 Z" fill="#EDC391"/>
  <path id="head" d="M64,16.04 C46.8,16.04 30.87,28.83 30.87,55.95 C30.87,77.74 44.36,90.62 56.1,94.78 C58.9,95.77 61.6,96.27 64,96.27 C66.38,96.27 69.07,95.78 71.85,94.8 C83.61,90.66 97.13,77.77 97.13,55.96 C97.13,28.83 81.2,16.04 64,16.04 Z" fill="#F9DDBD"/>
  <path id="hair_1_" d="M95.96,57.75 C95.96,62.17 94.04,72.86 94.04,72.86 C94.04,72.86 99.3,68.05 101.37,56 C104.21,39.49 102.9,8.21 64.07,8.21 C25.24,8.21 26.11,43.78 26.11,43.78 C26.11,43.78 26.11,53.5 27.75,59.72 C29.05,64.63 33.26,71.47 33.99,72.86 C33.15,66.69 33.04,67.08 32.79,60.67 C32.53,53.93 33.52,48.87 39.4,46.75 C60.19,39.26 74.41,29.86 74.41,29.86 C77.7,37.05 87.1,43.66 90.79,46.33 C93.83,48.52 95.96,53.33 95.96,57.75 Z" fill="#312D2D"/>
  <path id="nose" d="M67.81,68.05 C67.71,68.01 67.6,67.98 67.49,67.97 L60.5,67.97 C60.39,67.98 60.29,68.01 60.18,68.05 C59.55,68.31 59.2,68.96 59.5,69.66 C59.8,70.36 61.19,72.32 63.99,72.32 C66.79,72.32 68.18,70.36 68.48,69.66 C68.79,68.97 68.45,68.31 67.81,68.05 Z" fill="#DBA689"/>
  <path id="eye_1_" d="M52.62,58.87 A4.87 5.04 0 1 1 42.88,58.87 A4.87 5.04 0 1 1 52.62,58.87 Z" fill="#312D2D"/>
  <path id="eye" d="M85.12,58.87 A4.87 5.04 0 1 1 75.38,58.87 A4.87 5.04 0 1 1 85.12,58.87 Z" fill="#312D2D"/>
  <path d="M54.98,49.82 C54.05,48.59 51.91,46.81 47.75,46.81 C43.59,46.81 41.44,48.6 40.52,49.82 C40.11,50.36 40.21,50.99 40.5,51.37 C40.76,51.72 41.54,52.05 42.4,51.76 C43.26,51.47 44.94,50.6 47.75,50.58 C50.56,50.6 52.24,51.47 53.1,51.76 C53.96,52.05 54.74,51.73 55,51.37 C55.29,50.99 55.39,50.36 54.98,49.82 Z" fill="#454140"/>
  <path d="M87.48,49.82 C86.55,48.59 84.41,46.81 80.25,46.81 C76.09,46.81 73.94,48.6 73.02,49.82 C72.61,50.36 72.71,50.99 73,51.37 C73.26,51.72 74.04,52.05 74.9,51.76 C75.76,51.47 77.44,50.6 80.25,50.58 C83.06,50.6 84.74,51.47 85.6,51.76 C86.46,52.05 87.24,51.73 87.5,51.37 C87.79,50.99 87.89,50.36 87.48,49.82 Z" fill="#454140"/>
  <path id="mouth" d="M72.32,76.14 C69.17,78.01 58.86,78.01 55.71,76.14 C53.9,75.07 52.06,76.71 52.81,78.35 C53.55,79.96 59.18,83.71 64.04,83.71 C68.9,83.71 74.46,79.96 75.2,78.35 C75.95,76.71 74.12,75.06 72.32,76.14 Z" fill="#444444"/>
  <path d="M107.62,43.89 C107.62,43.89 101.54,35.45 74.79,27.2 C53.63,20.67 32.95,20.89 24.36,22.01 C24.36,22.01 24.09,22.24 23.39,23.26 C23.39,23.26 48.73,20.47 77.03,30.83 C87.43,34.64 101.3,39.4 107.04,47.3 L107.62,43.89 Z" fill="#B9BBBD"/>
  <path d="M60.53,40.53 C85.14,35.99 100.34,33.13 108.12,37.45 C108.77,30.76 106.56,25.92 104.52,23.42 C95.83,12.75 74.64,4 63.82,4 C53.23,4 33.32,9.09 23.27,23.42 C15.16,34.97 23.59,57.68 23.59,57.68 C23.59,57.68 31.78,45.83 60.53,40.53 Z" fill="url(#SVGID_2_)"/>
  <path d="M20.18,43.89 C20.18,43.89 26.26,35.45 53.01,27.2 C74.16,20.68 94.85,20.89 103.43,22.01 C103.43,22.01 103.7,22.24 104.4,23.26 C104.4,23.26 79.06,20.47 50.76,30.83 C40.36,34.64 26.49,39.4 20.75,47.3 L20.18,43.89 Z" fill="#B9BBBD"/>
  <path d="M108.12,36.73 C108.12,36.97 108.12,37.21 108.11,37.45 C108.1,39.32 107.95,41.19 107.72,43 C107.58,44.17 107.4,45.3 107.2,46.4 C106.04,52.79 104.2,57.68 104.2,57.68 C104.2,57.68 93.94,45.55 66.32,39.47 C65.86,39.38 65.4,39.28 64.93,39.18 C63.37,38.85 61.84,38.54 60.35,38.25 C59.5,38.08 58.66,37.92 57.83,37.76 C37.48,33.88 24.72,33.23 20.39,37.31 C19.74,30.62 21.53,26.03 23.43,23.42 C23.54,23.27 23.65,23.12 23.77,22.97 C24.1,22.53 24.47,22.08 24.87,21.61 C27.17,18.92 30.42,15.88 32.92,14.17 C39.74,9.48 45.93,6.68 52.26,5.24 L52.27,5.24 C55.23,4.57 58.22,4.19 61.31,4.06 C61.73,4.04 62.16,4.03 62.57,4.02 C62.99,4 63.41,4 63.82,4 C64.15,4 64.49,4.01 64.83,4.02 C66.55,4.07 68.33,4.28 70.14,4.62 C70.49,4.68 70.85,4.75 71.21,4.83 C80.08,6.74 89.64,11.66 97.16,16.73 C98.71,17.78 100,18.7 101.18,19.73 C101.26,19.79 101.33,19.86 101.4,19.93 C102.49,20.92 103.5,22.01 104.52,23.42 C106.62,26.31 107.64,29.95 107.98,33.76 C108.07,34.74 108.11,35.74 108.12,36.73 Z" fill="#C4C6C7"/>
  <path d="M107.72,43 C107.58,44.17 107.4,45.3 107.2,46.4 C100.7,39.14 87.51,34.6 77.45,30.91 C52.6,21.82 29.97,22.54 23.77,22.97 C24.1,22.53 24.47,22.08 24.87,21.61 C34.59,20.66 54.65,20.85 75.14,27.17 C96.09,33.63 104.76,40.2 107.72,43 Z" fill="#B9BBBD"/>
  <path d="M108.18,36.76 C108.16,36.75 108.14,36.74 108.12,36.73 C101.59,33.5 69.48,35.97 60.35,38.25 C60.12,38.31 59.9,38.36 59.7,38.42 C24.79,48.39 23.63,57.17 23.59,57.66 C23.59,57.67 23.59,57.68 23.59,57.68 C23.59,57.68 23.59,57.68 23.58,57.67 C23.53,57.51 23,56.06 22.36,53.79 C21.79,51.82 21.14,49.24 20.63,46.35 C20.44,45.26 20.27,44.12 20.12,42.95 C19.71,39.49 19.57,35.8 20.06,32.32 C20.23,31.04 20.49,29.79 20.85,28.59 L20.85,28.58 C21.4,26.71 22.19,24.97 23.27,23.42 C30.56,13.03 41.68,7.5 52.26,5.24 L52.27,5.24 C54.95,4.67 57.61,4.3 60.16,4.12 C60.54,4.1 60.93,4.08 61.31,4.06 C61.73,4.04 62.16,4.03 62.57,4.02 C62.99,4 63.41,4 63.82,4 C64.15,4 64.49,4.01 64.83,4.02 C65.25,4.04 65.69,4.06 66.13,4.09 C67.41,4.2 68.75,4.37 70.14,4.62 C70.49,4.68 70.85,4.75 71.21,4.83 C74.85,5.56 78.77,6.77 82.63,8.34 C83.59,8.73 84.53,9.14 85.48,9.58 L85.49,9.58 C91.42,12.28 97.05,15.79 101.18,19.73 C101.26,19.79 101.33,19.86 101.4,19.93 C101.98,20.48 102.52,21.05 103.04,21.62 C103.44,22.07 103.82,22.52 104.17,22.97 C104.29,23.12 104.41,23.27 104.52,23.42 C106.16,25.59 108.09,28.82 108.27,33.79 C108.31,34.72 108.28,35.71 108.18,36.76 Z" fill="url(#SVGID_3_)"/>
  <path d="M104.17,22.97 C98.18,22.55 75.38,21.74 50.34,30.91 C40.3,34.59 27.15,39.12 20.63,46.35 C20.44,45.26 20.27,44.12 20.12,42.95 C23.12,40.14 31.81,33.6 52.66,27.17 C73.22,20.83 93.37,20.66 103.04,21.62 C103.44,22.07 103.82,22.52 104.17,22.97 Z" fill="#B9BBBD"/>
  <path d="M108.18,36.76 C108.16,36.75 108.14,36.74 108.12,36.73 C108.12,36.97 108.12,37.21 108.11,37.45 C103.21,37.11 85.39,36.36 66.32,39.47 C61.99,40.18 57.6,41.09 53.28,42.24 C42.96,45 30.11,50.44 23.59,57.66 L23.58,57.67 C23.53,57.51 23,56.06 22.36,53.79 C26.24,50.6 36.67,43.03 51.91,39.12 C53.83,38.63 55.81,38.17 57.83,37.76 C78.22,33.58 102.52,33.32 107.98,33.76 C108.08,33.77 108.18,33.78 108.27,33.79 C108.31,34.72 108.28,35.71 108.18,36.76 Z" fill="#B9BBBD"/>
  <path d="M85.48,9.58 C76.6,9.65 60.14,11.3 45.56,17.36 C38.38,20.35 24.68,27.79 20.06,32.32 C20.23,31.04 20.49,29.79 20.85,28.59 L20.85,28.58 C23.31,26.28 30.08,20.83 43.82,15.46 C58.74,9.63 74.92,7.93 82.63,8.34 C83.59,8.73 84.53,9.14 85.48,9.58 Z" fill="#B9BBBD"/>
</svg>
